!!!SOCIAL_FUNCTION:	songs with hunting dance
!!!PDT:	1956
!!!OTL: No_40_Cow_Creek_Hunting_Dance_Song_(g).krn
!!!LANG: Non-Tone
!!!LING_GROUP: Muskogean
!!!REG: Florida
**kern
*staff1
=1-
*clefF4
*k[f#c#g#d#]
*M2/4
4E\
8B\L
8B\J
=2
2B\
=3!|:
4G#\
4B\
=4
8B\L
8A\J
8G#\L
8E\J
=5
4A\
4G#\
=6||
*M3/4
8E\L
8E\J
2E\
=7||
*M2/4
4E\
4E\
=8
4B\
8G#\L
8G#\J
=9
4A\
8G#\L
8E\J
=10
4A\
8G#\L
8E\J
=11
4G#\
8E\L
8E\J
=12
2E\
=13
4BB/
8BB/L
8BB/J
=14
2BB/
=15
2E\
=16
*M3/4
4E\
8E\L
8E\J
4B\
=17
2.B\
==:|!
*-
